X:1
T:Miss Lucy Long
M:2/4
L:1/8
R:Air
B:Gumbo Chaff - The Complete Preceptor for the Banjo (1851, p. 10)
N: A later edition of the earliest known banjo tutor, published in 1848.  It was written by Elias Howe, whose pseudonym Gumbo Chaff
N:is taken from Thomas Dartmouth Rice's 1834 blackface character.  The 1851 edition was published in Boston by Oliver Ditson.
N:In 1850 Howe sold some of his works to Ditson (this one among them) and agreed not to publish similar works for ten years.
Z:AK/FIddler's Companion
K:G
G/A/|.B.B .G.G|FA zB|.c.c .F.F|G2 z(G/A/)|
.B.B .G.G|Fd z.d/.d/|.c.c .E.F|g2 z||
(G/A/)|.B.B. G.G|F>A zB|cc EF G2 z[G/g/][A/a/]|
[Bb][Ba] [Gg][Gg]f<az [Bb]|[cc'][cc'] [Ee][Ff[G2g2]z||
